public/svg/github.svg

<svg fill="none" height="20" viewBox="0 0 20 20" width="20" xmlns="http://www.w3.org/2000/svg"><path clip-rule="evenodd" d="m9.71814.99984c-5.34497 0-9.71814 4.27477-9.71814 9.49946 0 4.156 2.79396 7.7184 6.68122 9.0246.4859.1187.60739-.2376.60739-.475v-1.6625c-2.67249.5937-3.27988-1.1874-3.27988-1.1874-.48591-1.0687-1.09328-1.4249-1.09328-1.4249-.85035-.5938.12147-.5938.12147-.5938.97181.1188 1.45772.95 1.45772.95.85034 1.5437 2.30806 1.0687 2.79397.8312.12147-.5937.36442-1.0687.60737-1.3062-2.18658-.2374-4.37316-1.0687-4.37316-4.7497 0-1.06869.36444-1.8999.97182-2.49361-.12147-.23749-.48591-1.18743.12148-2.49362 0 0 .85033-.23749 2.67249.94995.72886-.23749 1.57919-.35623 2.42953-.35623.85036 0 1.70066.11874 2.42956.35623 1.8221-1.18744 2.6725-.94995 2.6725-.94995.4859 1.30619.2429 2.25613.1215 2.49362.6073.71246.9718 1.54366.9718 2.49361 0 3.681-2.3081 4.3935-4.4947 4.631.3644.475.7289 1.0686.7289 1.8999v2.6124c0 .2374.1214.5937.7289.475 3.8872-1.3062 6.6811-4.8686 6.6811-9.0246-.1214-5.22469-4.4946-9.49946-9.83956-9.49946z" fill="#b2a6ea" fill-rule="evenodd"/></svg>

<svg width="20" height="20" viewBox="0 0 20 20" fill="none" xmlns="http://www.w3.org/2000/svg">
<path fill-rule="evenodd" clip-rule="evenodd" d="M9.71814 0.99984C4.37317 0.99984 0 5.27461 0 10.4993C0 14.6553 2.79396 18.2177 6.68122 19.5239C7.16712 19.6426 7.28861 19.2863 7.28861 19.0489V17.3864C4.61612 17.9801 4.00873 16.199 4.00873 16.199C3.52282 15.1303 2.91545 14.7741 2.91545 14.7741C2.0651 14.1803 3.03692 14.1803 3.03692 14.1803C4.00873 14.2991 4.49464 15.1303 4.49464 15.1303C5.34498 16.674 6.8027 16.199 7.28861 15.9615C7.41008 15.3678 7.65303 14.8928 7.89598 14.6553C5.7094 14.4179 3.52282 13.5866 3.52282 9.9056C3.52282 8.83691 3.88726 8.0057 4.49464 7.41199C4.37317 7.1745 4.00873 6.22456 4.61612 4.91837C4.61612 4.91837 5.46645 4.68088 7.28861 5.86832C8.01747 5.63083 8.8678 5.51209 9.71814 5.51209C10.5685 5.51209 11.4188 5.63083 12.1477 5.86832C13.9698 4.68088 14.8202 4.91837 14.8202 4.91837C15.3061 6.22456 15.0631 7.1745 14.9417 7.41199C15.549 8.12445 15.9135 8.95565 15.9135 9.9056C15.9135 13.5866 13.6054 14.2991 11.4188 14.5366C11.7832 15.0116 12.1477 15.6052 12.1477 16.4365V19.0489C12.1477 19.2863 12.2691 19.6426 12.8766 19.5239C16.7638 18.2177 19.5577 14.6553 19.5577 10.4993C19.4363 5.27461 15.0631 0.99984 9.71814 0.99984V0.99984Z" fill="#B2A6EA"/>
</svg>
